www/assets/icons/person_pin.svg

<svg xmlns="http://www.w3.org/2000/svg" width="24" height="24" viewBox="0 0 24 24" fill='currentColor'><path d="M12 2a9 9 0 0 0-9 9c0 4.17 2.84 7.67 6.69 8.69L12 22l2.31-2.31C18.16 18.67 21 15.17 21 11a9 9 0 0 0-9-9m0 2c1.66 0 3 1.34 3 3s-1.34 3-3 3-3-1.34-3-3 1.34-3 3-3m0 14.3a7.2 7.2 0 0 1-6-3.22c.03-1.99 4-3.08 6-3.08 1.99 0 5.97 1.09 6 3.08a7.2 7.2 0 0 1-6 3.22"/></svg>

<svg width="24" height="24" viewBox="0 0 24 24" xmlns="http://www.w3.org/2000/svg" fill='currentColor'><path d="M12 2C7.03 2 3 6.03 3 11C3 15.17 5.84 18.67 9.69 19.69L12 22L14.31 19.69C18.16 18.67 21 15.17 21 11C21 6.03 16.97 2 12 2ZM12 4C13.66 4 15 5.34 15 7C15 8.66 13.66 10 12 10C10.34 10 9 8.66 9 7C9 5.34 10.34 4 12 4ZM12 18.3C9.5 18.3 7.29 17.02 6 15.08C6.03 13.09 10 12 12 12C13.99 12 17.97 13.09 18 15.08C16.71 17.02 14.5 18.3 12 18.3Z"/></svg>
